X: 232071
T: White Blackbird
C: Joe Liddy
Z: BB
S: "The Leitrim Fiddler" (Dublin 1981)
L: 1/8
M: 6/8
R: jig
Q: 1/4 = 170
K: Ador
A/G/ | EAA ABc | ABA GED | EAA ABd | edB A2G |
EAA ABc | ABA GAB | ABd efg | edB A2 :|
d | eaa aba | age deg | aba gag | edB ABd |
eaa gag | e/f/ge dBd | ABd efg | edB A2 :|
%%%%%%%%%%%%%%%%%%%%%
